icons/alert-circle.svg

<svg width="24" height="24" viewBox="0 0 24 24" fill="none" xmlns="http://www.w3.org/2000/svg">
<path fill-rule="evenodd" clip-rule="evenodd" d="M12 4C7.58172 4 4 7.58172 4 12C4 16.4183 7.58172 20 12 20C16.4183 20 20 16.4183 20 12C20 7.58172 16.4183 4 12 4ZM2 12C2 6.47715 6.47715 2 12 2C17.5228 2 22 6.47715 22 12C22 17.5228 17.5228 22 12 22C6.47715 22 2 17.5228 2 12ZM13.01 16.5C13.01 17.0523 12.5623 17.5 12.01 17.5H12C11.4477 17.5 11 17.0523 11 16.5C11 15.9477 11.4477 15.5 12 15.5H12.01C12.5623 15.5 13.01 15.9477 13.01 16.5ZM11.01 13C11.01 13.5523 11.4577 14 12.01 14C12.5623 14 13.01 13.5523 13.01 13V8C13.01 7.44772 12.5623 7 12.01 7C11.4577 7 11.01 7.44772 11.01 8V13Z" fill="#333333"/>
</svg>

<svg xmlns="http://www.w3.org/2000/svg" width="24" height="24" fill="none" viewBox="0 0 24 24">
  <path fill="#333" fill-rule="evenodd" d="M12 4a8 8 0 100 16 8 8 0 000-16zM2 12C2 6.477 6.477 2 12 2s10 4.477 10 10-4.477 10-10 10S2 17.523 2 12zm11.01 4.5a1 1 0 01-1 1H12a1 1 0 110-2h.01a1 1 0 011 1zm-2-3.5a1 1 0 102 0V8a1 1 0 10-2 0v5z"/>
</svg>
